X:1
T:Come with Rejoicing
T:Come with Rejoicing
T:Phoebe Palmer Knapp
T:Frances Jane (Fanny) Crosby, 1882
T:Public Domain Courtesy of the Cyber Hymnal™
T:Public Domain Courtesy of the Cyber Hymnal™
C:Phoebe Palmer Knapp
Z:Public Domain
Z:Courtesy of the Cyber Hymnal™
%%score ( 1 2 ) ( 3 4 )
L:1/8
Q:1/4=110
M:4/4
K:C
V:1 treble 
V:2 treble 
V:3 bass 
V:4 bass 
V:1
 [EG]2 [^D^F]>[DF] [EG]2 [=FA]2 | [EG]2 [CE]>[DF] [EG]4 | [CE]2 [EG]>[EG] [Ec]2 [Fc]2 | %3
w: 1.~Come with re- joic- ing,|come with de- light,|Na- ture in wak- ing,|
w: 2.~Guard- ed from dan- ger,|shel- tered and blest,|Un- der His ban- ner,|
w: 3.~Oh! what a Sav- ior,|gra- cious to all,|Oh! how His bless- ings|
w: 4.~Still may His mer- cy|ten- der- ly flow,|Still may He guide us|
 [^Fd]2 [Fc]2 [=FB]4 | [EG]2 [^D^F]>[DF] [EG]2 [=FA]2 | [EG]2 [CE]>[DF] [EG]4 | %6
w: glad and bright;|Hearts o- ver- flow- ing|ga- ther to- day,|
w: calm, we rest,|Come we be- fore Him,|come with a song,|
w: round us fall,|Gent- ly to com- fort,|kind- ly to cheer,|
w: here be- low;|Then when our jour- ney|safe- ly is past,|
 [DG]2 [D^F]>[DG] [FA]2 F2 | G2 ([^FA]>[DF]) [DG]4 ||"^Refrain" [B,F]2 [B,F]>[B,E] [B,D]2 [B,D]2 | %9
w: Fill us with rap- ture,|Lord we * pray.||
w: Tell how He leads us|all day * long.|Praise our Re- deem- er,|
w: Sleep- ing or wak- ing,|God is * near.||
w: May we be ga- thered|home at * last.||
 [EG]2 [EG]>[DF] [CE]4 | [EA]2 [EA]>[EG] [D^F]2 [Fd]2 | [^Fd]2 [FA]2 [=Fd]4 | %12
w: |||
w: tell of His love,|Praise our Re- deem- er,|God a- bove;|
w: |||
w: |||
 [Ge]2 [Ec]>[Ec] [EG]2 [CE]2 | D2 [FA]>[FA] [FA]4 | [FB]2 [FB]>[FB] [FA]2 [DF]2 | %15
w: |||
w: Tell of His mer- cy,|bound- less and free,|None can pro- tect us,|
w: |||
w: |||
 [FA]3 [EG] [EG]4 | [Ec]2 [DB]>[Fd] [Ec]2 [Ec]2 | [Ec]2 [Ac]>[Ad] [^Ge]4 | %18
w: |||
w: Lord, like Thee;|Tell of His mer- cy,|bound- less and free,|
w: |||
w: |||
 [Ad]2 [Ac]>[FA] [EG]2 [Ec]2 | [Ec]4 B4 | [Ec]8 |] %21
w: |||
w: None can pro- tect us,|Lord, like|Thee.|
w: |||
w: |||
V:2
 x8 | x8 | x8 | x8 | x8 | x8 | x6 ^F2 | G2 x6 || x8 | x8 | x8 | x8 | x8 | x8 | x8 | x8 | x8 | x8 | %18
 x8 | x4 B4 | x8 |] %21
V:3
 [C,G,]2 [C,A,]>[C,A,] [C,G,]2 [C,C]2 | [C,C]2 [C,G,]>[C,G,] [C,G,]4 | %2
 [C,G,]2 [C,G,]>[C,G,] [C,G,]2 A,2 | [D,A,]2 [D,D]2 [G,D]4 | [C,C]2 [C,A,]>[C,A,] [C,G,]2 [C,C]2 | %5
 [C,C]2 [C,G,]>[C,G,] [C,G,]4 | [D,B,]2 [D,A,]>[D,B,] [D,C]2 D,2 | [G,B,]2 (C>A,) [G,B,]4 || %8
 [G,,G,]2 [G,,G,]>[G,,G,] G,2 G,2 | [C,G,]2 [C,G,]>[C,G,] [C,G,]4 | %10
 [^C,A,]2 [C,A,]>[C,A,] [D,A,]2 [D,A,]2 | [D,A,]2 [D,C]2 [G,B,]4 | %12
 [C,C]2 [C,G,]>[C,G,] [C,G,]2 [C,G,]2 | [F,A,]2 [F,C]>[F,C] [F,C]4 | %14
 G,2 [G,D]>[G,D] [G,D]2 [G,B,]2 | [C,C]3 [C,C] [C,C]4 | [C,G,]2 [C,G,]>[C,G,] [C,G,]2 [C,C]2 | %17
 [A,C]2 [F,C]>[F,A,] [E,B,]4 | [F,C]2 [F,C]>[F,C] [G,C]2 [G,C]2 | G,4 [G,,G,]4 | [C,G,]8 |] %21
V:4
 x8 | x8 | x6 A,2 | x8 | x8 | x8 | x6 D,2 | x8 || x4 G,2 G,2 | x8 | x8 | x8 | x8 | x8 | x8 | x8 | %16
 x8 | x8 | x8 | G,4 x4 | x8 |] %21

